X:491
T:
R:vals
S:Efter »Florsen» i Burs.
O:Gotland, Burs
M:3/4
L:1/8
K:F
A2|c2 f2 a2|c2 f2 a2|ac'c'c'c'c'|c'2 b2 g2|c2 e2 g2|c2 e2 g2|gbbbbb|b2 a2 g2|
gfffff|Accc c2|ce df eg|f4::c2|[C2F2A2] cffa|a2 g2 f2|e3 f ge|c2 dfeg|
[C2F2A2] cffa|a2 g2 f2|e3 fge|c2 dfeg|f4::c2|fedcBA|Lc>B B2 B2|gfedcB|
LB>A A2 A2|F2 Ac f2|egbagf|efgcde|f4:|

